-----BEGIN PGP PUBLIC KEY BLOCK-----

mQINBGqikcsBEADnSRA66BkT3imctacuwgkxYJM2czrwzgka/g+0gUaCaAe/g/LZ
ncEBO0J7aCZiTVKcHsXOcuMUktc7EmPtbO0Z3eWCNB0FEG2Z6CCsJeTbmcVYAJN/
/Nk32CfU8fSw4ruM5AcAyah6ScC9GQzu+2w+J5DZKZsFqzo3b6mYeRUr0vRQQEUQ
NYS7m21rAJSRTmCj2ZQPCgRbXU4/BKUlT98jV/Y+fTWYUAOMxLZ79NWJ9KVWjQHg
Qmb39yW1kCTdCxTan0a2dgOMUQzcNuhkjLPv9rp0ED2GtHw0tEE2mmjx5YllOz+6
d4pDhAKjNF64EeNgkYxe7iTK5eqm1F/ZOt8x96D1CGqA1HIapQ2CgjZaoOaZbXpm
JAMZjP3WUB6IfudkeINS+FAtb0/vO5DkWjCSZk/i/cB7l8FsF+q6gHwmcR5k4D7Q
xdG4gaIGWvv3Wj7m9ZfpL2xPU21/Fhzvu2UIIJX/9ZdA+y/kXZV3ZlyaWSceE3ji
PgGWv7XcsWPO4RVevU+qu8hWhMyfUwkP1aQqz62rv4p6lcFbaSFgaVb5QtROmjYi
Vw5Y8NpxzdU93xJgpfj3OJIRq7+nNWdpqJrlDsdUAKLlucpm1VufTBqKWri9XGyA
yFAhhmTsmbL02K0iiXOYtfa+pr41ppfKrswfjwacWkD1KxESF60QrlW4eQARAQAB
tCNBc2hsYXJPUyBCdWlsZCA8YnVpbGRAYXNobGFyb3Mub3JnPokCUQQTAQoAOxYh
BCt4NRCccKC+hT9F5hS8Jul9meo6BQJqopHLAhsDBQsJCAcCAiICBhUKCQgLAgQW
AgMBAh4HAheAAAoJEBS8Jul9meo6LFAP/0NupCXi5NfUwyVNzUEGc8vg1D+qoGRq
VN96NeUOgwBtK3ppdVv1l+Z+qpeL/xVrmxSgR2wjuZfmZrx5sq7PcmdrYw/N3jVe
PpFFCQx0qoffCLLQm/TTzYTr0AGBpKfoR4IA+XLYlzTKiSoGi1ItXsZ7k/r2CAwc
xWUb7czMUxANz9gDTTonNlZ/7PPVgc7cE+OzwfI2OSrpov31S9wuVAt3roWjqRp/
6B1Tfc4fP6t8LauuvJ+p0N4W3L1klY5fVNlFE2eVQKO3/BHKqznxdzZLM6G6feEj
zSZwQxTxXjyPsos5PcG7Hz70uqMR7SPvpmZOJOHoqLy9Vh46RsfwrARNaxm06Ywm
ldrje87RE/bfaRpjIorlANBtc22noLEQ/332nEubdQeSwJ7J2DeznQ9mT7TvUEMQ
N1VA/lQeVwKEKrmbeCFi1Fr0R5VDCEvzFcYXopoIrLxd6/Jw6FLrvULdHHF28aiO
IDLKELzzCG0WOu/aKyFf129YmHEfPnM3kXc3dEY0FlQ5hhtgevAsA179l3eeHpVE
Gda6+8sCRd2lf+hkdRa8M68ofxhpVRX3XBcFoyXj1yOAGPAbxmeW+nghjbmjuRHy
FWS6MBjL7+crcB/w/r2mgBe9KmPO8QsEEk+te0qCmZPtT3icmZ0yLfZmA0WtL6U5
PuGkOKOhtqvx
=kiY7
-----END PGP PUBLIC KEY BLOCK-----
